assets/img/phone.svg

<svg xmlns="http://www.w3.org/2000/svg" xmlns:xlink="http://www.w3.org/1999/xlink" id="phone-Layer_1" xml:space="preserve" height="120" viewBox="0 0 120 120" width="120" version="1.1" y="0px" x="0px" enable-background="new 0 0 120 120"><path id="phone-back_1_" d="m88 105.3c0 5.5 0.4 10.7-9.8 10.7h-36.6c-10.2 0-9.6-5.2-9.6-10.7v-91.1c0-5.5-0.7-10.2 9.6-10.2h36.6c10.2 0 9.8 4.7 9.8 10.2v91.1z" fill="#545454"/><linearGradient id="phone-refelction-back_1_" y2="60" gradientUnits="userSpaceOnUse" x2="88.002" y1="60" x1="31.993">	<stop stop-color="#fff" stop-opacity="0" offset="0"/>	<stop stop-color="#fff" offset="1"/></linearGradient><path id="phone-refelction-back" opacity=".1" d="m88 105.3v-91.1c0-5.5 0.4-10.2-9.8-10.2h-10.6l-35.6 100.8v0.5c0 5.5-0.6 10.7 9.6 10.7h36.6c10.2 0 9.8-5.2 9.8-10.7z" enable-background="new    " fill="url(#phone-refelction-back_1_)"/><g id="phone-camera">	<circle cy="13.5" cx="47.8" r="1.2" fill="#3F3F3F"/>	<circle cy="13.5" cx="47.8" r=".7" fill="#6D6D6D"/>	<circle cy="13.5" cx="47.8" r=".2" fill="#5B5B5B"/></g><path id="phone-dot" d="m60 7.9c0.4 0 0.7 0.3 0.7 0.7s-0.3 0.7-0.7 0.7-0.7-0.3-0.7-0.7 0.3-0.7 0.7-0.7z" fill="#3F3F3F"/><path id="phone-speaker_1_" d="m66.5 13.6c0 0.2-0.2 0.4-0.4 0.4h-12.2c-0.2 0-0.4-0.2-0.4-0.4v-0.2c0-0.2 0.2-0.4 0.4-0.4h12.2c0.2 0 0.4 0.2 0.4 0.4v0.2z" fill="#ddd"/><path id="phone-screen_1_" d="m84.6 103.8c0 0.5-0.399 0.7-0.8 0.7h-47.6c-0.5 0-0.8-0.4-0.8-0.7v-82.5c0-0.5 0.4-0.7 0.8-0.7h47.6c0.5 0 0.8 0.4 0.8 0.7v82.5z" fill="#D3D3D3"/><path id="phone-button_1_" d="m60 106.8c1.878 0 3.4 1.522 3.4 3.4s-1.522 3.4-3.4 3.4-3.4-1.521-3.4-3.399 1.522-3.4 3.4-3.4z" stroke="#444" stroke-miterlimit="10" stroke-width=".5" fill="none"/><path id="phone-logo" d="m65 50.5l-10.7-3.4c-0.5-0.5-0.8-1.6-0.8-2.8s0.6-2.2 1.1-2.8l5.3-3.1 5.2 3.1v9h-0.1zm-15.8-5.9v12.3l2.9 1.8v-10.2c-0.5-0.6-0.9-1.6-0.9-2.8s0.4-2.3 0.9-2.8l-2.9 1.7zm5.3 6.4v8.9l5.3 3.1 5.3-3.1c1-0.6 1-1.6 1-2.8s-0.199-2.3-0.8-2.8l-10.8-3.3zm12.9-8.2v10.2c0.5 0.6 1 1.6 1 2.8s-0.301 2.3-0.9 2.8l3.3-1.8v-12.2l-3.4-1.8z" fill="#FF302C"/><path id="phone-text" d="m41.2 68v1.8h-0.4v-4h0.4v1.8h1v-1.8h0.4v4h-0.4v-1.8h-1zm3.6-1.3l-0.4 0.1v-0.1c0-0.4-0.1-0.601-0.5-0.601s-0.5 0.2-0.5 0.601c0 0.899 1.3 1 1.3 2.1 0 0.601-0.3 1-0.9 1s-0.9-0.399-0.9-1v-0.2h0.4v0.2c0 0.4 0.1 0.601 0.5 0.601s0.5-0.2 0.5-0.601c0-0.899-1.3-1-1.3-2.1 0-0.601 0.3-1 0.9-1s0.9 0.4 0.9 1zm1.3 0.9h1.1v0.4h-1.1v-0.4zm3.4-1.9c0.6 0 0.9 0.399 0.9 1v2c0 0.6-0.3 1-0.9 1h-1v-4h1zm0 3.7c0.3 0 0.5-0.2 0.5-0.601v-2.1c0-0.4-0.1-0.601-0.5-0.601h-0.5v3.2h0.5v0.102zm2.7-1.8v0.4h-1v1.4h1.2v0.4h-1.7v-4h1.7v0.4h-1.2v1.3h1v0.1zm1-1.9l0.7 3.5 0.7-3.5h0.4l-0.8 4h-0.7l-0.8-4h0.5zm3.5 1.9v0.4h-1v1.4h1.2v0.4h-1.7v-4h1.7v0.4h-1.2v1.3h1v0.1zm0.6 2.2v-4h0.4v3.6h1.1v0.4h-1.5zm1.9-3.1c0-0.601 0.3-1 0.9-1s0.9 0.399 0.9 1v2.1c0 0.601-0.3 1-0.9 1s-0.9-0.399-0.9-1v-2.1zm0.5 2.1c0 0.4 0.1 0.601 0.5 0.601 0.3 0 0.5-0.2 0.5-0.601v-2.1c0-0.4-0.101-0.601-0.5-0.601-0.3 0-0.5 0.2-0.5 0.601v2.1zm2.7-3.1c0.6 0 0.899 0.399 0.899 1v0.5c0 0.6-0.3 1-1 1h-0.299v1.6h-0.4v-4h0.8v-0.1zm-0.1 2.1c0.3 0 0.5-0.1 0.5-0.5v-0.5c0-0.399-0.1-0.6-0.5-0.6h-0.4v1.6h0.4zm3.2-1.6c-0.3 0-0.5 0.2-0.5 0.6v0.2c0 0.3 0.2 0.5 0.5 0.5h0.4v-0.5h0.4v0.4h0.2v0.4h-0.2v1.4c0 0.2 0 0.3 0.101 0.5h-0.401c0-0.101 0-0.2-0.1-0.3-0.1 0.2-0.3 0.4-0.6 0.4-0.5 0-0.7-0.3-0.7-0.899v-0.4c0-0.4 0.101-0.7 0.5-0.9-0.3-0.1-0.5-0.399-0.5-0.8v-0.1c0-0.601 0.301-1 1-1h0.7v0.399h-0.8v0.1zm0 1.7c-0.3 0-0.5 0.199-0.5 0.6v0.4c0 0.3 0.1 0.6 0.5 0.6 0.2 0 0.4-0.1 0.4-0.5v-1.1h-0.4zm3.2-2.2c0.6 0 0.899 0.399 0.899 1v2c0 0.6-0.3 1-0.899 1h-1v-4h1zm0 3.7c0.3 0 0.5-0.2 0.5-0.601v-2.1c0-0.4-0.101-0.601-0.5-0.601h-0.5v3.2h0.5v0.102zm2.8-1.8v0.4h-1v1.4h1.2v0.4h-1.6v-4h1.7v0.4h-1.2v1.3h0.9v0.1zm2.3-0.9l-0.4 0.1v-0.1c0-0.4-0.101-0.601-0.5-0.601-0.4 0-0.5 0.2-0.5 0.601 0 0.899 1.3 1 1.3 2.1 0 0.601-0.3 1-0.9 1s-0.899-0.399-0.899-1v-0.2h0.5v0.2c0 0.4 0.1 0.601 0.5 0.601 0.399 0 0.5-0.2 0.5-0.601 0-0.899-1.301-1-1.301-2.1 0-0.601 0.301-1 0.9-1 0.5 0 0.8 0.4 0.8 1zm0.9-1v4h-0.4v-4h0.4zm2.2 1v0.3h-0.4v-0.4c0-0.399-0.1-0.6-0.5-0.6-0.3 0-0.5 0.2-0.5 0.6v2.1c0 0.399 0.1 0.6 0.5 0.6 0.3 0 0.5-0.2 0.5-0.6v-0.7h-0.4v-0.4h0.9v1.2c0 0.601-0.3 1-0.9 1s-0.899-0.399-0.899-1v-2.1c0-0.601 0.3-1 0.899-1 0.6 0 0.8 0.4 0.8 1zm0.9 3.1h-0.4v-4h0.6l0.9 2.9v-2.9h0.4v4h-0.5l-1-3.3v3.3z" fill="#FF302C"/><linearGradient id="phone-reflection-screen_2_" y2="62.55" gradientUnits="userSpaceOnUse" x2="84.55" y1="62.55" x1="35.4">	<stop stop-color="#fff" stop-opacity="0" offset="0"/>	<stop stop-color="#fff" offset="1"/></linearGradient><path id="phone-reflection-screen_1_" opacity=".6" d="m83.8 20.6h-22l-26.4 74.5v8.7c0 0.4 0.3 0.7 0.8 0.7h47.6c0.4 0 0.8-0.3 0.8-0.7v-82.5c0-0.3-0.3-0.7-0.8-0.7z" enable-background="new    " fill="url(#phone-reflection-screen_2_)"/></svg>

<?xml version="1.0" encoding="utf-8"?>
<!-- Generator: Adobe Illustrator 16.0.0, SVG Export Plug-In . SVG Version: 6.00 Build 0)  -->
<!DOCTYPE svg PUBLIC "-//W3C//DTD SVG 1.1//EN" "http://www.w3.org/Graphics/SVG/1.1/DTD/svg11.dtd">
<svg version="1.1" id="phone" xmlns="http://www.w3.org/2000/svg" xmlns:xlink="http://www.w3.org/1999/xlink" x="0px" y="0px"
	 width="120px" height="120px" viewBox="0 0 120 120" enable-background="new 0 0 120 120" xml:space="preserve">
<path id="back" fill="none" stroke="#231F20" stroke-width="0.25" stroke-miterlimit="10" d="M88,105.3c0,5.5,0.4,10.7-9.8,10.7
	H41.6c-10.2,0-9.6-5.2-9.6-10.7V14.2C32,8.7,31.3,4,41.6,4h36.6C88.4,4,88,8.7,88,14.2V105.3z"/>
<path id="speak" fill="none" stroke="#231F20" stroke-width="0.25" stroke-miterlimit="10" d="M60,7.9c0.4,0,0.7,0.3,0.7,0.7
	S60.4,9.3,60,9.3S59.3,9,59.3,8.6S59.6,7.9,60,7.9z"/>
<path id="speaker" fill="none" stroke="#231F20" stroke-width="0.25" stroke-miterlimit="10" d="M66.5,13.6c0,0.2-0.2,0.4-0.4,0.4
	H53.9c-0.2,0-0.4-0.2-0.4-0.4v-0.2c0-0.2,0.2-0.4,0.4-0.4h12.2c0.2,0,0.4,0.2,0.4,0.4V13.6z"/>
<path id="screen" fill="none" stroke="#231F20" stroke-width="0.25" stroke-miterlimit="10" d="M84.6,103.8c0,0.5-0.398,0.7-0.8,0.7
	H36.2c-0.5,0-0.8-0.4-0.8-0.7V21.3c0-0.5,0.4-0.7,0.8-0.7h47.6c0.5,0,0.8,0.4,0.8,0.7V103.8z"/>
<path id="button" fill="none" stroke="#231F20" stroke-width="0.25" stroke-miterlimit="10" d="M60,106.8c1.878,0,3.4,1.522,3.4,3.4
	S61.878,113.6,60,113.6s-3.4-1.521-3.4-3.398S58.122,106.801,60,106.8L60,106.8z"/>
<path id="logo" fill="none" stroke="#231F20" stroke-width="0.25" stroke-miterlimit="10" d="M65,50.5l-10.7-3.4
	c-0.5-0.5-0.8-1.6-0.8-2.8c0-1.2,0.6-2.2,1.1-2.8l5.3-3.1l5.2,3.1v9H65z M49.2,44.6v12.3l2.9,1.8V48.5c-0.5-0.6-0.9-1.6-0.9-2.8
	c0-1.2,0.4-2.3,0.9-2.8L49.2,44.6z M54.5,51v8.9l5.3,3.1l5.3-3.1c1-0.6,1-1.6,1-2.8c0-1.2-0.199-2.3-0.8-2.8L54.5,51z M67.4,42.8V53
	c0.5,0.6,1,1.6,1,2.8c0,1.2-0.301,2.3-0.9,2.8l3.3-1.8V44.6L67.4,42.8z"/>
<path id="text" fill="none" stroke="#231F20" stroke-width="0.25" stroke-miterlimit="10" d="M41.2,68v1.8h-0.4v-4h0.4v1.8h1v-1.8
	h0.4v4h-0.4V68H41.2z M44.8,66.7l-0.4,0.1v-0.1c0-0.4-0.1-0.601-0.5-0.601s-0.5,0.199-0.5,0.601c0,0.899,1.3,1,1.3,2.1
	c0,0.601-0.3,1-0.9,1c-0.6,0-0.9-0.399-0.9-1v-0.2h0.4v0.2c0,0.4,0.1,0.601,0.5,0.601c0.4,0,0.5-0.199,0.5-0.601
	c0-0.899-1.3-1-1.3-2.1c0-0.601,0.3-1,0.9-1S44.8,66.1,44.8,66.7z M46.1,67.6h1.1V68h-1.1V67.6z M49.5,65.7c0.6,0,0.9,0.399,0.9,1v2
	c0,0.6-0.3,1-0.9,1h-1v-4H49.5z M49.5,69.4c0.3,0,0.5-0.2,0.5-0.602v-2.1c0-0.4-0.1-0.602-0.5-0.602H49v3.2h0.5V69.4z M52.2,67.6V68
	h-1v1.4h1.2V69.8h-1.7v-4h1.7v0.4h-1.2v1.3h1V67.6z M53.2,65.7l0.7,3.5l0.7-3.5H55l-0.8,4h-0.7l-0.8-4H53.2L53.2,65.7z M56.7,67.6
	V68h-1v1.4h1.2V69.8h-1.7v-4h1.7v0.4h-1.2v1.3h1V67.6z M57.3,69.8v-4h0.4V69.4h1.1V69.8H57.3z M59.2,66.7c0-0.601,0.3-1,0.9-1
	s0.9,0.399,0.9,1v2.1c0,0.601-0.3,1-0.9,1s-0.9-0.399-0.9-1V66.7z M59.7,68.8c0,0.4,0.1,0.601,0.5,0.601c0.3,0,0.5-0.199,0.5-0.601
	v-2.1c0-0.4-0.101-0.601-0.5-0.601c-0.3,0-0.5,0.199-0.5,0.601V68.8z M62.4,65.7c0.6,0,0.898,0.399,0.898,1v0.5c0,0.6-0.3,1-1,1H62
	v1.6h-0.4v-4H62.4V65.7z M62.3,67.8c0.3,0,0.5-0.1,0.5-0.5v-0.5c0-0.399-0.1-0.6-0.5-0.6H61.9v1.6H62.3z M65.5,66.2
	c-0.3,0-0.5,0.2-0.5,0.6V67c0,0.3,0.2,0.5,0.5,0.5h0.4V67H66.3v0.4h0.2V67.8h-0.2v1.4c0,0.2,0,0.3,0.101,0.5H66
	c0-0.101,0-0.2-0.1-0.3C65.8,69.6,65.6,69.8,65.3,69.8c-0.5,0-0.7-0.3-0.7-0.899v-0.399c0-0.399,0.102-0.7,0.5-0.899
	c-0.3-0.101-0.5-0.399-0.5-0.801v-0.1c0-0.602,0.301-1,1-1h0.7V66.1h-0.8V66.2L65.5,66.2z M65.5,67.9c-0.3,0-0.5,0.199-0.5,0.6v0.4
	c0,0.3,0.1,0.6,0.5,0.6c0.2,0,0.4-0.1,0.4-0.5v-1.1H65.5z M68.7,65.7c0.6,0,0.899,0.399,0.899,1v2c0,0.6-0.301,1-0.899,1h-1v-4H68.7
	z M68.7,69.4c0.3,0,0.5-0.2,0.5-0.602v-2.1c0-0.4-0.101-0.602-0.5-0.602h-0.5v3.2h0.5V69.4z M71.5,67.6V68h-1v1.4h1.2V69.8H70.1v-4
	h1.7v0.4h-1.2v1.3h0.9V67.6z M73.8,66.7L73.4,66.8v-0.1c0-0.4-0.102-0.601-0.5-0.601c-0.4,0-0.5,0.199-0.5,0.601
	c0,0.899,1.3,1,1.3,2.1c0,0.601-0.3,1-0.9,1c-0.6,0-0.899-0.399-0.899-1v-0.2h0.5v0.2c0,0.4,0.101,0.601,0.5,0.601
	s0.5-0.199,0.5-0.601c0-0.899-1.301-1-1.301-2.1c0-0.601,0.301-1,0.9-1C73.5,65.7,73.8,66.1,73.8,66.7z M74.7,65.7v4h-0.4v-4H74.7z
	 M76.9,66.7V67h-0.4v-0.4c0-0.398-0.1-0.6-0.5-0.6c-0.3,0-0.5,0.2-0.5,0.6V68.7c0,0.399,0.1,0.6,0.5,0.6c0.3,0,0.5-0.2,0.5-0.6V68
	h-0.4v-0.4H77v1.2c0,0.601-0.3,1-0.9,1c-0.6,0-0.898-0.399-0.898-1v-2.1c0-0.601,0.3-1,0.898-1C76.7,65.7,76.9,66.1,76.9,66.7z
	 M77.8,69.8H77.4v-4H78l0.9,2.9v-2.9H79.3v4h-0.5l-1-3.3V69.8z"/>
</svg>
